X:259
T: Sanct Wolfgangs - Ruf
N: A0615B
O: Europa, Mitteleuropa, Deutschland
N: Beuttner 1602 II No. 31
R: Romanze, Ballade, Lied, religioeses Lied
M: 4/2
L: 1/4
K: C
C2 | C2D2C2CG, | C2E2D3
E | F2GFEDC2 | D4z2
C2 | D2E2FGA2 | G2FED2
F2 | EDC2DCB,2 | C6

